16x16/actions/keyframe-record.svg

<svg version="1.1" viewBox="0 0 16 16" xmlns="http://www.w3.org/2000/svg">
    <defs>
        <style id="current-color-scheme" type="text/css">.ColorScheme-Text {
        color:#555e70;
      }
      .ColorScheme-NegativeText {
          color:#da4453;
      }</style>
    </defs>
    <path style="fill:currentColor;fill-opacity:1;stroke:none" class="ColorScheme-Text" d="M 5,3 V 4 H 7 V 5.0507812 C 4.7620407,5.3045267 3,7.1975144 3,9.5 3,11.813856 4.7794406,13.714649 7.0332031,13.953125 6.6992186,13.613635 6.43803,13.209557 6.265625,12.765625 4.9435886,12.265608 4,10.997158 4,9.5 4,7.5670034 5.5670034,6 7.5,6 c 1.4804972,0 2.738502,0.9218541 3.25,2.2207031 0.447476,0.1661231 0.856244,0.4220185 1.201172,0.7519531 -0.10518,-0.8491863 -0.442085,-1.62392 -0.957031,-2.2597656 l 0.754297,-0.7542968 0.398046,0.3949218 0.707032,-0.7070312 -1.5,-1.5 L 10.646484,4.8535156 11.042969,5.25 10.291016,6.0019531 C 9.6449906,5.4911251 8.858964,5.1481728 8,5.0507812 V 4 h 2 V 3 Z"/>
    <path style="fill:currentColor;fill-opacity:1;stroke:none" class="ColorScheme-NegativeText" d="m12 11.5a2.5 2.5 0 0 1-2.5 2.5 2.5 2.5 0 0 1-2.5-2.5 2.5 2.5 0 0 1 2.5-2.5 2.5 2.5 0 0 1 2.5 2.5z"/>
</svg>

<svg viewBox="0 0 16 16" xmlns="http://www.w3.org/2000/svg"><path style="fill:currentColor;fill-opacity:1;stroke:none;color:#555e70" d="M5 3v1h2v1.05c-2.238.255-4 2.148-4 4.45 0 2.314 1.78 4.215 4.033 4.453a3.5 3.5 0 0 1-.767-1.187A3.492 3.492 0 0 1 4 9.5 3.5 3.5 0 0 1 7.5 6c1.48 0 2.739.922 3.25 2.22a3.5 3.5 0 0 1 1.201.753 4.445 4.445 0 0 0-.957-2.26l.754-.754.398.395.708-.708-1.5-1.5-.708.708.397.396-.752.752A4.512 4.512 0 0 0 8 5.051V4h2V3z"/><path style="fill:currentColor;fill-opacity:1;stroke:none;color:#da4453" d="M12 11.5A2.5 2.5 0 0 1 9.5 14 2.5 2.5 0 0 1 7 11.5 2.5 2.5 0 0 1 9.5 9a2.5 2.5 0 0 1 2.5 2.5z"/></svg>
